X:1
T:All By Cheating
C:Paul Bartlett
M:4/4
L:1/4
K:C
"C" C C (E G) | C E G2 | "G" G G B d | B B G2 |
"C" C C (E G) | C E G2 | "F" F A c c | (c2 A2) |
"Am" A/c/A/c/ e2 | A c e2 | "G" G/B/G/B/ d2 | G B d2 |
"C" C C (E G) | C E G2 | "G" (d2 B2) | G4 |
